lib/preview/nrk-logo-preview-nrk-mp3-with-bg.svg

<svg width="79" height="24" viewBox="0 0 79 24" fill="none" xmlns="http://www.w3.org/2000/svg">
<rect width="79" height="24" fill="#03FCA3"/>
<path d="M6.00427 18V6.00109H9.94146V18H6.00427ZM15.2981 7.91078L17.5623 18H13.2534L10.5498 6.00109H12.9664C13.5206 5.9939 14.0583 6.18925 14.4788 6.55039C14.8999 6.89638 15.1892 7.3767 15.2981 7.91078ZM18.1538 18V6.00109H22.091V18H18.1538ZM25.0647 10.5641C24.6405 10.5682 24.223 10.4572 23.8568 10.243C23.4955 10.0341 23.1954 9.73396 22.9865 9.3726C22.7721 9.00633 22.661 8.58876 22.6652 8.16432C22.6604 7.74246 22.7715 7.32738 22.9865 6.96443C23.1976 6.60699 23.4974 6.31009 23.8568 6.10252C24.2231 5.8885 24.6405 5.77751 25.0647 5.78138C25.4865 5.77684 25.9014 5.88793 26.2645 6.10252C26.6203 6.31191 26.9169 6.60856 27.1263 6.96443C27.3411 7.32748 27.4522 7.74249 27.4476 8.16432C27.4515 8.58873 27.3405 9.00623 27.1263 9.3726C26.9191 9.73238 26.6222 10.0323 26.2645 10.243C25.9014 10.458 25.4862 10.5691 25.0642 10.5641H25.0647ZM28.0559 18V6.00109H31.9934V18H28.0559ZM36.978 12.5582C36.9891 12.5699 37.0735 12.7079 37.2314 12.9723C37.3893 13.2367 37.5949 13.5747 37.8482 13.9863C38.1017 14.3977 38.3692 14.8343 38.6506 15.296C38.932 15.7577 39.1969 16.1944 39.4451 16.6058C39.6924 17.0172 39.974 17.4819 40.29 18H35.9641C35.6936 17.5606 35.4484 17.1635 35.2288 16.8086C35.0091 16.4537 34.7756 16.0706 34.5281 15.6594C34.2801 15.2485 34.0349 14.8485 33.7925 14.4595C33.5501 14.0704 33.3418 13.7296 33.1675 13.4371C32.9926 13.1443 32.8714 12.9471 32.8039 12.8455C32.6368 12.5934 32.5379 12.3023 32.517 12.0005C32.5337 11.7109 32.6269 11.431 32.787 11.1891C32.8546 11.0764 32.9786 10.8764 33.1588 10.5891C33.3391 10.3018 33.5503 9.96105 33.7925 9.56672C34.0347 9.17239 34.2799 8.7696 34.5281 8.35837C34.7763 7.94715 35.0098 7.56124 35.2288 7.20071C35.4488 6.84055 35.6939 6.44059 35.9641 6.00081H40.29L36.9439 11.4595C36.8404 11.6216 36.782 11.8083 36.7749 12.0005C36.786 12.2023 36.8565 12.3963 36.9774 12.5582H36.978Z" fill="black"/>
<path d="M61.2812 6H57.5734C57.5734 6 59.6793 9.45163 59.703 9.49605C59.7828 9.59609 59.8273 9.71957 59.8297 9.8474C59.8322 9.97523 59.7925 10.1003 59.7167 10.2033L57.5734 13.7107H61.28C61.28 13.7107 63.0672 10.7915 63.3117 10.3864C63.4279 10.231 63.4899 10.0418 63.4881 9.84788C63.4863 9.65393 63.4208 9.46593 63.3018 9.31271C63.0406 8.8657 63.0392 8.86598 61.2812 6Z" fill="black"/>
<path d="M72.8889 7.98695C72.7643 7.77505 71.6612 6 71.6612 6H63.7295L65.4623 8.90304H69.6403L67.9157 11.7257L69.8389 14.951L67.9848 17.995H71.3714C71.9158 17.1052 72.7311 15.7293 72.9011 15.4487C73.0177 15.2928 73.0799 15.1031 73.0781 14.9085C73.0763 14.7139 73.0107 14.5253 72.8912 14.3716C72.7212 14.0827 71.8147 12.6458 71.2728 11.7617C71.2728 11.7617 72.7311 9.34837 72.9011 9.06629C73.018 8.91003 73.0802 8.71965 73.078 8.52456C73.0758 8.32947 73.0093 8.14054 72.8889 7.98695Z" fill="black"/>
<path d="M65.2578 12.1201C64.7357 12.9716 63.8627 14.399 63.6998 14.6771C63.5848 14.8251 63.5216 15.0068 63.5199 15.1941C63.5182 15.3815 63.5781 15.5642 63.6904 15.7143C63.8542 15.9859 64.734 17.4243 65.2586 18.2812C65.783 17.4243 66.6631 15.9859 66.8266 15.7143C66.939 15.5642 66.9989 15.3815 66.9972 15.1941C66.9955 15.0067 66.9323 14.8251 66.8172 14.6771C66.6529 14.399 65.7796 12.9716 65.2578 12.1201Z" fill="black"/>
<path d="M54.7168 6C54.3315 6.00259 53.9552 6.1171 53.6339 6.3296C53.3614 6.49708 51.1385 8.38162 50.9691 8.52506C50.7992 8.38162 48.5769 6.49708 48.3044 6.3296C47.983 6.1171 47.6068 6.00259 47.2214 6H44.8615V16.5682L48.1418 14.1068V9.86299L50.9691 11.9883L53.7965 9.86299V17.9933H57.0961V6H54.7168Z" fill="black"/>
</svg>

<svg xmlns="http://www.w3.org/2000/svg" viewBox="0 0 79 24"><path fill="#03FCA3" d="M0 0h79v24H0z"/><path fill="#000" d="M6.004 18V6.001h3.937V18H6.004Zm9.294-10.09L17.562 18h-4.309L10.55 6.001h2.416a2.276 2.276 0 0 1 1.513.55c.42.345.71.826.82 1.36ZM18.154 18V6.001h3.937V18h-3.937Zm6.91-7.436a2.383 2.383 0 0 1-2.4-2.4 2.303 2.303 0 0 1 .323-1.2 2.411 2.411 0 0 1 3.278-.861c.355.209.652.506.861.861.215.363.326.778.322 1.2a2.4 2.4 0 0 1-1.183 2.079 2.302 2.302 0 0 1-1.2.321ZM28.057 18V6.001h3.937V18h-3.937Zm8.922-5.442c.011.012.096.15.253.414.158.265.364.603.617 1.014a315.936 315.936 0 0 1 1.597 2.62c.247.411.529.876.845 1.394h-4.326c-.27-.44-.516-.837-.735-1.191-.22-.355-.453-.738-.7-1.15-.249-.41-.494-.81-.737-1.2-.242-.389-.45-.73-.625-1.022-.174-.293-.296-.49-.363-.591a1.748 1.748 0 0 1-.287-.845c.017-.29.11-.57.27-.812.068-.113.192-.313.372-.6s.391-.628.633-1.022c.243-.395.488-.797.736-1.209l.7-1.157.736-1.2h4.326l-3.346 5.458a1.08 1.08 0 0 0-.17.542c.012.201.082.395.203.557h.001ZM61.281 6h-3.708s2.106 3.452 2.13 3.496a.58.58 0 0 1 .014.707l-2.144 3.508h3.707s1.787-2.92 2.032-3.325a.886.886 0 0 0-.01-1.073c-.261-.447-.263-.447-2.02-3.313ZM72.889 7.987A335.625 335.625 0 0 0 71.66 6H63.73l1.732 2.903h4.178l-1.724 2.823 1.923 3.225-1.854 3.044h3.386c.545-.89 1.36-2.266 1.53-2.546a.888.888 0 0 0-.01-1.077c-.17-.29-1.076-1.726-1.618-2.61L72.9 9.066a.888.888 0 0 0-.012-1.08Z"/><path fill="#000" d="M65.258 12.12c-.522.852-1.395 2.279-1.558 2.557a.855.855 0 0 0-.01 1.037c.164.272 1.044 1.71 1.569 2.567.524-.857 1.404-2.295 1.568-2.567a.855.855 0 0 0-.01-1.037 435.64 435.64 0 0 0-1.56-2.557ZM54.717 6a1.987 1.987 0 0 0-1.083.33c-.273.167-2.495 2.052-2.665 2.195-.17-.143-2.392-2.028-2.665-2.195A1.988 1.988 0 0 0 47.221 6h-2.36v10.568l3.28-2.461V9.863l2.828 2.125 2.828-2.125v8.13h3.3V6h-2.38Z"/></svg>
